icons/breezeDark/actions/22/node.svg

<svg viewBox="0 0 22 22" xmlns="http://www.w3.org/2000/svg"><path d="m6 3-.09375.09375-2.90625 2.90625v.90625 11.40625.6875h.6875 11.4375.84375l.03125-.03125 2.90625-2.90625.0625-.0625.03125-.03125v-.53125-11.75-.6875h-.6875-11.78125zm1 1h10.3125l-1.9375 1.9375-.0625.0625h-8.3125zm-1 .375v1.625h-1.625zm12 .3125v10.3125h-2v-8.3125l.0625-.0625zm-14 2.3125h2v8.28125l-.34375.375-1.65625 1.65625zm3 0h8v8h-8zm-.28125 9h8.28125v2h-10.3125l1.65625-1.65625zm9.28125 0h1.59375l-1.59375 1.59375z" fill="#c0c0c0"/></svg>

<svg xmlns="http://www.w3.org/2000/svg" viewBox="0 0 22 22">
  <defs id="defs3051">
    <style type="text/css" id="current-color-scheme">
      .ColorScheme-Text {
        color:#c0c0c0;
      }
      </style>
  </defs>
 <path 
     style="fill:currentColor;fill-opacity:1;stroke:none" 
     d="M 6 3 L 5.90625 3.09375 L 3 6 L 3 6.90625 L 3 18.3125 L 3 19 L 3.6875 19 L 15.125 19 L 15.96875 19 L 16 18.96875 L 18.90625 16.0625 L 18.96875 16 L 19 15.96875 L 19 15.4375 L 19 3.6875 L 19 3 L 18.3125 3 L 6.53125 3 L 6 3 z M 7 4 L 17.3125 4 L 15.375 5.9375 L 15.3125 6 L 7 6 L 7 4 z M 6 4.375 L 6 6 L 4.375 6 L 6 4.375 z M 18 4.6875 L 18 15 L 16 15 L 16 6.6875 L 16.0625 6.625 L 18 4.6875 z M 4 7 L 6 7 L 6 15.28125 L 5.65625 15.65625 L 4 17.3125 L 4 7 z M 7 7 L 15 7 L 15 15 L 7 15 L 7 7 z M 6.71875 16 L 15 16 L 15 18 L 4.6875 18 L 6.34375 16.34375 L 6.71875 16 z M 16 16 L 17.59375 16 L 16 17.59375 L 16 16 z "
     class="ColorScheme-Text"
     />
</svg>
